X: 1358
T: Corrugated Reel
C:Bob Rummery
B: australian traditional tunes wiki
M:4/4
L:1/8
R: Reel
Q: 1/4=100
K:D
V:1 
(3ABc||"D"d2fe dAFA|"G"BAGF "Em"EFGE|"D"D2DE FGAF|fdAD "A7"E2(3ABc|
"D"d2 fe dAFA|"G"GABG "A7"ABcA|"D"fedA GABG|"A7"AGEC "D"D4||
"A7"E2EF GABc|"D"defg afdf|"G"g2gg "D"afdf|de (3faf "A7"e4|
"A7"E2EF GABc|"D"defg afdf|"G"d'2c'b "D"afdf|"A7"gece "D"d4||
% abcbook-tune_id 6342d53a3c2ccd213a3ae2ee


% abcbook-boost 0
% abcbook-tablature 
% abcbook-transpose 
% abcbook-lastupdated 1665324360940
% abcbook-soundfonts 
% abcbook-repeats 1
% NFF Book 2016

